z_dist/img/icons/facebook.svg

<svg width="32" height="32" viewBox="0 0 32 32" fill="none" xmlns="http://www.w3.org/2000/svg">
<path d="M17.6676 25.4077V16.7028H20.0706L20.389 13.7031H17.6676L17.6717 12.2017C17.6717 11.4193 17.7461 11.0001 18.8698 11.0001H20.372V8H17.9687C15.082 8 14.066 9.4552 14.066 11.9024V13.7034H12.2666V16.7031H14.066V25.4077H17.6676Z" fill="white"/>
</svg>

<svg width="32" height="32" fill="none" xmlns="http://www.w3.org/2000/svg"><path d="M17.668 25.408v-8.705h2.403l.318-3h-2.721l.004-1.501c0-.783.074-1.202 1.198-1.202h1.502V8h-2.403c-2.887 0-3.903 1.455-3.903 3.902v1.801h-1.8v3h1.8v8.705h3.602z" fill="#fff"/></svg>
